brandFactory_export/1.Light/Comprar productos hogar_1Light.svg

<?xml version="1.0" encoding="UTF-8"?>
<svg width="24px" height="24px" viewBox="0 0 24 24" version="1.1" xmlns="http://www.w3.org/2000/svg" xmlns:xlink="http://www.w3.org/1999/xlink">
    <title>1.Light/Comprar productos hogar_1Light</title>
    <g id="Symbols" stroke="none" stroke-width="1" fill="none" fill-rule="evenodd">
        <g id="1.Light/Comprar-productos-hogar_1Light" fill="#5CB615" fill-rule="nonzero">
            <path d="M10.1714286,20.3193277 C11.2168067,20.3193277 11.8184874,20.9210084 11.8184874,21.9663866 C11.8184874,23.0117647 11.2201681,23.6134454 10.1714286,23.6134454 C9.12605042,23.6134454 8.52436975,23.0117647 8.52436975,21.9663866 C8.52436975,20.9210084 9.12605042,20.3193277 10.1714286,20.3193277 Z M16.7260504,20.3193277 C17.7714286,20.3193277 18.3731092,20.9210084 18.3731092,21.9663866 C18.3731092,23.0117647 17.7747899,23.6134454 16.7260504,23.6134454 C15.6806723,23.6134454 15.0789916,23.0117647 15.0789916,21.9663866 C15.0789916,20.9210084 15.6806723,20.3193277 16.7260504,20.3193277 Z M10.1714286,20.9915966 C9.49579832,20.9915966 9.19663866,21.2907563 9.19663866,21.9663866 C9.19663866,22.6420168 9.49579832,22.9411765 10.1714286,22.9411765 C10.8470588,22.9411765 11.1462185,22.6420168 11.1462185,21.9663866 C11.1462185,21.2907563 10.8470588,20.9915966 10.1714286,20.9915966 Z M16.7260504,20.9915966 C16.0504202,20.9915966 15.7512605,21.2907563 15.7512605,21.9663866 C15.7512605,22.6420168 16.0504202,22.9411765 16.7260504,22.9411765 C17.4016807,22.9411765 17.7008403,22.6420168 17.7008403,21.9663866 C17.7008403,21.2907563 17.4016807,20.9915966 16.7260504,20.9915966 Z M2.30588235,2.0250468e-13 C3.01176471,2.0250468e-13 3.69747899,0.221848739 4.23529412,0.628571429 C4.78319328,1.03865546 5.14621849,1.61344538 5.2605042,2.24537815 C5.3289433,2.62959767 5.57794508,4.10791547 5.87744166,5.89885198 L9.88236134,5.899 L14.1680672,1.39495798 C14.2386555,1.3210084 14.3327731,1.28067227 14.4336134,1.28067227 C14.5344538,1.28067227 14.6285714,1.3210084 14.6991597,1.39495798 L16.3529412,3.1394958 L16.3529412,2.30252101 C16.3529412,2.10084034 16.5176471,1.93613445 16.7193277,1.93613445 L18.6857143,1.93613445 C18.887395,1.93613445 19.0521008,2.10084034 19.0521008,2.30252101 L19.0513613,5.902 L23.2806723,5.90252101 C23.4655462,5.90252101 23.6168067,6.05378151 23.6168067,6.23865546 C23.6168067,6.26554622 23.6134454,6.29579832 23.6067227,6.32268908 C23.4218487,7.05546218 23.0722689,8.46386555 22.6991597,9.95630252 C22.2487395,11.7714286 21.7815126,13.6470588 21.6403361,14.1915966 C21.3378151,15.3613445 20.9008403,16.2184874 20.312605,16.810084 C19.7042017,17.4084034 18.9411765,17.7142857 18.0369748,17.7142857 L10.1714286,17.7142857 C9.25378151,17.7142857 8.44033613,17.4084034 7.82521008,16.8268908 C7.1697479,16.2084034 6.74621849,15.3109244 6.56134454,14.1546218 C6.38991597,13.0756303 4.78655462,3.43529412 4.59495798,2.36302521 C4.51092437,1.89915966 4.24201681,1.47563025 3.82857143,1.16638655 C3.40840336,0.847058824 2.86722689,0.672268908 2.30588235,0.672268908 L0.339495798,0.672268908 C0.154621849,0.672268908 0.00336134451,0.521008403 0.00336134451,0.336134454 C0.00336134451,0.151260504 0.154621849,2.0250468e-13 0.339495798,2.0250468e-13 L2.30588235,2.0250468e-13 Z M20.9176471,7.94957983 C21.0554622,8.09747899 21.0521008,8.32941176 20.9042017,8.46722689 C20.8369748,8.53109244 20.7462185,8.56806723 20.6521008,8.56806723 L19.0521008,8.56806723 L19.0521008,12.789916 C19.0521008,13.4386555 18.6789916,13.8117647 18.0302521,13.8117647 L10.8201681,13.8117647 C10.1714286,13.8117647 9.79831933,13.4386555 9.79831933,12.789916 L9.79831933,8.56806723 L8.19831933,8.56806723 C7.99663866,8.56806723 7.83193277,8.40336134 7.83193277,8.20168067 C7.83193277,8.10756303 7.86890756,8.01680672 7.93277311,7.94957983 L9.24336134,6.571 L5.98985539,6.57154222 C6.50952502,9.6833757 7.12623235,13.4041932 7.22689076,14.0504202 C7.52941176,15.9798319 8.57815126,17.0453782 10.1714286,17.0453782 L18.0369748,17.0453782 C18.7663866,17.0453782 19.3546218,16.810084 19.8352941,16.3294118 C20.3327731,15.8319328 20.7193277,15.0554622 20.9882353,14.0201681 C21.1294118,13.4789916 21.5932773,11.6033613 22.0470588,9.79159664 C22.3563025,8.54789916 22.6521008,7.35798319 22.8504202,6.57478992 L19.6123613,6.574 L20.9176471,7.94957983 Z M14.4336134,2.18151261 L10.4870402,6.33044825 C10.4563196,6.43379792 10.3769554,6.5167487 10.2757975,6.55245073 L9.05210084,7.83529412 L10.1647059,7.83529412 C10.3663866,7.83529412 10.5310924,8 10.5310924,8.20168067 L10.5310924,12.789916 C10.5310924,13.0285714 10.5815126,13.0789916 10.8201681,13.0789916 L18.0302521,13.0789916 C18.2689076,13.0789916 18.3193277,13.0285714 18.3193277,12.789916 L18.3193277,8.20168067 C18.3193277,8 18.4840336,7.83529412 18.6857143,7.83529412 L19.7983193,7.83529412 L18.4201681,6.37983193 C18.3563025,6.31260504 18.3193277,6.22184874 18.3193277,6.12773109 L18.3193277,2.66890756 L17.0857143,2.66890756 L17.0857143,4.05714286 C17.0857143,4.25882353 16.9210084,4.42352941 16.7193277,4.42352941 C16.6184874,4.42352941 16.5210084,4.38319328 16.4537815,4.3092437 L14.4336134,2.18151261 Z" id="Comprar-productos-hogar_1Light"></path>
        </g>
    </g>
</svg>

<svg width="24" height="24" viewBox="0 0 24 24" xmlns="http://www.w3.org/2000/svg"><path d="M10.171 20.32c1.046 0 1.647.601 1.647 1.646 0 1.046-.598 1.647-1.647 1.647-1.045 0-1.647-.601-1.647-1.647 0-1.045.602-1.647 1.647-1.647zm6.555 0c1.045 0 1.647.601 1.647 1.646 0 1.046-.598 1.647-1.647 1.647-1.045 0-1.647-.601-1.647-1.647 0-1.045.602-1.647 1.647-1.647zm-6.555.672c-.675 0-.974.299-.974.974 0 .676.299.975.974.975.676 0 .975-.299.975-.975 0-.675-.299-.974-.975-.974zm6.555 0c-.676 0-.975.299-.975.974 0 .676.3.975.975.975.676 0 .975-.299.975-.975 0-.675-.3-.974-.975-.974zM2.306 0a3.21 3.21 0 011.93.629c.547.41.91.984 1.025 1.616.068.385.317 1.863.616 3.654h4.005l4.286-4.504a.364.364 0 01.531 0l1.654 1.744v-.836c0-.202.165-.367.366-.367h1.967c.201 0 .366.165.366.367v3.599h4.229a.337.337 0 01.326.42c-.185.733-.535 2.142-.908 3.634-.45 1.815-.917 3.691-1.059 4.236-.302 1.17-.74 2.026-1.327 2.618-.609.598-1.372.904-2.276.904h-7.866c-.917 0-1.73-.306-2.346-.887-.655-.619-1.079-1.516-1.264-2.672-.171-1.08-1.774-10.72-1.966-11.792a1.932 1.932 0 00-.766-1.197A2.524 2.524 0 002.306.672H.339A.337.337 0 01.003.336C.003.151.155 0 .34 0h1.967zm18.612 7.95a.366.366 0 01-.266.618h-1.6v4.222c0 .649-.373 1.022-1.022 1.022h-7.21c-.649 0-1.022-.373-1.022-1.022V8.568h-1.6a.367.367 0 01-.265-.618l1.31-1.379H5.99c.52 3.112 1.136 6.833 1.237 7.48.302 1.929 1.351 2.994 2.944 2.994h7.866c.73 0 1.318-.235 1.798-.716.498-.497.884-1.274 1.153-2.309.141-.541.605-2.417 1.06-4.228.308-1.244.604-2.434.802-3.217l-3.238-.001 1.306 1.376zm-6.484-5.768L10.487 6.33a.339.339 0 01-.211.222L9.052 7.835h1.113c.201 0 .366.165.366.367v4.588c0 .239.05.289.29.289h7.21c.238 0 .288-.05.288-.29V8.203c0-.202.165-.367.367-.367h1.112L18.42 6.38a.368.368 0 01-.1-.252v-3.46h-1.234v1.39a.367.367 0 01-.632.251l-2.02-2.127z" fill="#5CB615" fill-rule="nonzero"/></svg>
